icons/shield_us_wi_rustic.svg

<svg width="21" height="20" overflow="visible" xmlns="http://www.w3.org/2000/svg">
 <rect style="fill:#693f23;fill-rule:evenodd;stroke:#ffcd00;stroke-width:1;stroke-linecap:square;stroke-miterlimit:4;stroke-dasharray:none;stroke-opacity:1" width="20" height="19" x=".5" y=".5" ry="1.5" rx="1.5"/>
 <path d="m 10.141448,17.714323 7.593419,-2.05e-4 c -0.05033,-0.686531 0.118285,-1.237523 -0.289552,-1.831953 -0.04325,-0.629602 0.0026,-1.286432 0.237649,-1.934453 0.376457,-0.582832 -0.0937,-1.304761 0.3408,-1.886935 0.560756,-0.397092 -0.06193,-1.35413 0.554199,-1.876419 0.14588,-0.5630486 0.174138,-0.8872289 0.330941,-1.4149572 0.196139,-0.304771 0.185362,-0.4739592 0.308091,-0.8336734 C 19.047577,8.2178115 18.991544,8.3667692 18.781312,8.5566959 18.289776,9.3273522 17.845505,9.6502218 17.272795,10.361383 17.635627,9.8473591 17.496117,8.6784228 17.542198,7.8888432 17.668332,7.3350235 16.823365,8.1533703 17.060911,7.4981562 17.197639,7.123392 17.342937,6.6718002 16.940971,6.3858415 16.192433,5.9619422 16.168347,5.7278518 15.100301,5.5759633 14.453918,5.4708494 13.889427,4.9661124 13.186286,4.8965509 12.657483,4.6282005 11.796878,4.7506629 11.476061,4.2406632 10.951307,3.8481206 10.573293,3.2377489 9.5875835,3.6189296 9.4830003,3.2689477 10.389103,2.3630331 9.6911732,2.2735844 9.3597311,2.4957851 9.062068,2.5703481 8.7995554,2.674756 8.2262039,2.8754461 7.5449074,3.3268485 6.9510216,3.0803909 6.6457778,2.734508 6.5141015,3.3555546 6.3295618,3.3274513 6.2037857,4.0277189 6.4425309,4.8582716 6.102062,5.4613536 5.6769022,5.5047117 5.1327572,5.8622638 4.9630215,6.3847182 4.6298627,6.5891903 4.7339435,7.1369477 5.1543442,7.1107689 5.5946765,7.6330686 5.0272253,7.8436763 5.0320874,8.4330855" style="fill:none;stroke:#fff;stroke-width:.75;stroke-linecap:butt;stroke-linejoin:round;stroke-miterlimit:4;stroke-dasharray:none"/>
</svg>

<svg width="21" height="20" overflow="visible" xmlns="http://www.w3.org/2000/svg"><rect style="fill:#693f23;fill-rule:evenodd;stroke:#ffcd00;stroke-width:1;stroke-linecap:square;stroke-miterlimit:4;stroke-dasharray:none;stroke-opacity:1" width="20" height="19" x=".5" y=".5" ry="1.5" rx="1.5"/><path d="M10.141 17.714h7.594c-.05-.686.118-1.237-.29-1.832-.043-.63.003-1.286.238-1.934.376-.583-.094-1.305.34-1.887.562-.397-.061-1.354.555-1.877.146-.563.174-.887.33-1.415.197-.304.186-.474.309-.833-.17.282-.225.43-.436.62-.491.771-.935 1.094-1.508 1.805.363-.514.223-1.683.27-2.472.125-.554-.72.264-.482-.39.137-.376.282-.827-.12-1.113-.749-.424-.773-.658-1.84-.81-.647-.105-1.212-.61-1.915-.68-.529-.268-1.39-.145-1.71-.655-.525-.393-.903-1.003-1.888-.622-.105-.35.801-1.256.103-1.345-.331.222-.629.296-.891.4-.574.201-1.255.653-1.849.406-.305-.345-.437.276-.621.247-.126.7.113 1.531-.228 2.134-.425.044-.97.401-1.139.924-.333.204-.23.752.191.726.44.522-.127.733-.122 1.322" style="fill:none;stroke:#fff;stroke-width:.75;stroke-linecap:butt;stroke-linejoin:round;stroke-miterlimit:4;stroke-dasharray:none"/></svg>
